X: 35610
T: Saddle The Pony
R: jig
M: 6/8
K: Gmajor
|:D|"G"GBA G2B|"G"def gdB|"G"GBA G2B|"D"AFD AFD|
"G"GBA G2B|"G"def g2g|"C"ege "G"dBA|"D"AGF "G"G2:|
|:d|"Em"e2e edB|"D"def "G"g2g|"Em"e2e edB|"D"dBA ABd|
"Em"e2e edB|"D"def "G"g2g|"C"ege "G"dBA|"D"AGF "G"G2:|

